src/22/actions/zoom-out.svg

<svg xmlns="http://www.w3.org/2000/svg" viewBox="0 0 22 22"><path d="M3 3v7h1V4h14v14h-6v1h7V3H3zm11.293 4L11 10.293V8h-1v4h4v-1h-2.293L15 7.707 14.293 7zM3 13v2h1v-1h1v-1H3zm4 0v1h1v1h1v-2H7zm-4 4v2h2v-1H4v-1H3zm5 0v1H7v1h2v-2H8z" fill="currentColor" color="#5d656b"/></svg>

<svg xmlns="http://www.w3.org/2000/svg" viewBox="0 0 22 22">
  <defs id="defs3051">
    <style type="text/css" id="current-color-scheme">
      .ColorScheme-Text {
        color:#5d656b;
      }
      </style>
  </defs>
 <path 
     style="fill:currentColor;fill-opacity:1;stroke:none" 
     d="M 3 3 L 3 10 L 4 10 L 4 4 L 18 4 L 18 18 L 12 18 L 12 19 L 19 19 L 19 18 L 19 4 L 19 3 L 4 3 L 3 3 z M 14.292969 7 L 11 10.292969 L 11 8 L 10 8 L 10 12 L 11 12 L 14 12 L 14 11 L 11.707031 11 L 15 7.7070312 L 14.292969 7 z M 3 13 L 3 15 L 4 15 L 4 14 L 5 14 L 5 13 L 3 13 z M 7 13 L 7 14 L 8 14 L 8 15 L 9 15 L 9 13 L 7 13 z M 3 17 L 3 19 L 5 19 L 5 18 L 4 18 L 4 17 L 3 17 z M 8 17 L 8 18 L 7 18 L 7 19 L 9 19 L 9 17 L 8 17 z "
	 class="ColorScheme-Text"
     />
</svg>
